!!!OTL: Ansingelied zum Neujahr. / (15 Jahrh.)
!!!ARE: Europa, Mitteleuropa, Deutschland
!!!SCT: A0531
!!!TXL: @@GMH
!!!YEM: Copyright 1995, estate of Helmut Schaffrath.
**kern	**text
*M4/2	*
*met(c|)	*
*clefC3	*
*k[b-]	*
*F:ion	*
!LO:TX:a:t=jon.	!
{2F	Nun
=1	=1
2A	laſ-
2B-	-ſen
2c	wir
2c	den
=2	=2
*lig	*
2d	Han-
2d	-ſen
*Xlig	*
2c}	ſtan,
{2c	vnd
=3	=3
2A	ſin-
2B-	-gen
2c	wir
2c	die
=4	=4
*lig	*
2d	El-
2d	-ſen
*Xlig	*
2c}	an!
{2F	Nun
=5	=5
2A	laſ-
2B-	-ſen
2c	wir
2c	den
=6	=6
*lig	*
2d	Han-
2d	-ſen
*Xlig	*
2c}	ſtan,
{2c	vnd
=7	=7
2A	ſin-
2B-	-gen
2c	wir
2c	die
=8	=8
*lig	*
2d	El-
2d	-ſen
*Xlig	*
2c}	an!
==	==
!!!GTL: Geistliche Volkslieder
!!!AGN: Romanze, Ballade, Lied, religioeses Lied
!! Schmeltzel, Quodl. 1544 No. 6 und 8.
!!!ONB: ESAC (Essen Associative Code) Database: ALTDEU
!!!AMT: simple quadruple
!!!AIN: vox
!!!EED: Helmut Schaffrath
!!!EEV: 1.0
!!!AMD: Ionian
!!!URL-scan: https://rosdok.uni-rostock.de/mcrviewer/recordIdentifier/rosdok_ppn738218359/iview2/phys_0710.iview2?x=-2231.2783251231526&y=-12.096551709342748&scale=0.2314709236031927&rotation=0&layout=singlePageLayout&logicalDiv=log_0007
!!!ENC: Anna Maria Matuszewska
!!!EEV: 2024/20/03
*-	*-
